X: 26
T:New Rigg'd Ship,The. WCa.26
M:C|
Q:180
S:Wm. Calvert MS, 1812, Leyburn, Yorks.
R:reel
O:England
A:North Yorkshire
Z:vmp.Chris Partington, May 2003
K:A
e|cAEcd2df|ecac dBBd|cAEc dfea|fdBe cA A :|!
g|a2ec f/g/a/f/ ec|dfec dBBg |a2ec f/g/a/f/ ec|fdBe cAAg|!
a2ec f/g/a/f/ ec|dfec dBBe|cAEc dfea|fdBe cA A||
